X:1
T:Title
%%score ( 1 2 ) { 3 | 4 }
L:1/8
Q:1/4=110
M:4/4
K:Ab
V:1 treble nm="Grand Piano, Soprano"
V:2 treble 
V:3 bass nm="Choir Pad, I�ll Sing for Jesus"
V:4 bass 
V:1
 [A,C][B,D] [CE]2 [CA]2 [CA][EG] | .A2 z2 z4 | [CE]2 [DF]2 [FA]2 [Fd]2 | [Fd]2 [Ec]6 | %4
w: By~J.~H.~Anderson * * * * *||||
 [EB][FA] [GB]2 [Ge]2 [Ge]2 | [GB][Bd] [Ac]2 [Ac][GB] A2 | [CE]2 [DF]2 [Fd]2 [Ec]2 | [DB]2 [CA]6 | %8
w: ||||
 AB c4 cB | Ac [Fe]6 | [Ac]A [GB]2 [GB]>[GB] [Bd]2 | [Ac]2 [GB]6 | cd [Ee]4 [Ee][Ac] | Bc [FA]6 | %14
w: ||||||
 [FA]>[DF] [CE]2 [Ec]2 [DB]2 | cB A2- [DA]>D C2- | C6 z2 |] %17
w: |||
V:2
 x8 | E-[EB] [Ec]2 [CA]2 [CE]2 | x8 | x8 | x8 | x8 | x8 | x8 | z2 A6 | x8 | x8 | x8 | E2 z2 z4 | %13
 _G2 z2 z4 | x8 | D2 C2 z4 | x8 |] %17
V:3
 E,2 A,2 E,2 E,2 | A,G, A,2 A,2 A,2 | A,2 A,2 A,2 A,2 | A,2 z2 z4 | B,C E2 B,2 B,2 | E2 E2 ED C2 | %6
 A,2 A,2 B,2 G,2 | G,2 A,6 | z4[K:treble] E2 ED | CE C2 C2 C2 | EC E2 E>E E2 | E2 E2 E>E E2 | %12
 A,G, C2 C>C C[K:bass]A, | A,2 A,2 D>D D2 | D>A, A,2 A,2 G,2 | G,2 A,2 F,>F, E,2- | E,6 z2 |] %17
V:4
 A,,2 A,,2 A,,2 A,,B,, | C,E, z2 z2 A,,2 | A,,2 D,2 D,2 D,E, | F,G, A,6 | G,F, E,2 E,2 E,2 | %5
 [E,B,]2 A,2 A,2 A,2 | A,,2 D,2 B,,2 E,2 | E,2 A,,6 | z4 A,2 A,2 | A,2 A,2 A,2 A,2 | %10
 A,2 E,2 E,>E, G,2 | A,2 E,2 E,>E, E,D, | C,B,, A,,2 A,,>A,, A,,2 | C,2 D,2 D,>D, D,2 | %14
 D,>D, E,2 E,2 E,2 | E,2 A,,2 D,>D, A,,2- | A,,6 z2 |] %17

